!!!!SEGMENT: pl-cz--iii-115--006_dankowski-adalbert--missa-es-agnus-dei.krn
!!!cenid: 18xx:827
!!!COM: Dankowski, Adalbert
!!!COM-rismID: pe30000793
!!!CDT: ~1760-~1836
!!!CNT: Polish
!!!OPR: Missa Es
!!!OTL: Agnus Dei
!!!OMV: 006
!!!PDT: 1802
!!!AGN: Sacred; Vespers
!!!SMS-siglum: PL-CZ
!!!SMS-shelfmark: III-115
!!!SMS-shelfwork: 001-006 M
!!!SMS-variant:
!!!SMS-altvar:
!!!NIFC-rismSourceID: 300000112
!!!NIFC-rismChildID: 300000112
!!!NIFC-islandoraID: pl-cz:34553
!!!URL-pdf-islandora: https://repozytorium.nifc.pl/islandora/object/pl-cz%3A34553/datastream/PDF/view
!!!URL-scan: https://polish.musicsources.pl/pl/lokalizacje/galeria/rekopisy/6832/1 @EN{Scan on Polish Music Sources Website} @PL{Skany w portalu Dziedzictwo Muzyki Polskiej w otwartym dostępie}
!!!ONB-nifc: UWAGA: części Mszy: Kyrie, Gloria, Credo, Sanctus, Benedictus, Agnus Dei. Uwaga: brak partii cor 1 i 2
!!!AIN: 1 alto 1 bass 2 clars 2 cor 1 organ 1 soprn 1 tenor 2 violn
!!!key: E-
**kern	**fba	**kern	**dynam	**kern	**kern	**text	**kern	**text	**kern	**text	**kern	**text	**kern	**kern	**kern	**kern
*	*	*group4	*	*group4	*group3	*	*group3	*	*group3	*	*group3	*	*group2	*group2	*group1	*group1
*part11	*part11	*part10	*part10	*part9	*part8	*part8	*part7	*part7	*part6	*part6	*part5	*part5	*part4	*part3	*part2	*part1
*staff11	*	*staff10	*	*staff9	*staff8	*staff8	*staff7	*staff7	*staff6	*staff6	*staff5	*staff5	*staff4	*staff3	*staff2	*staff1
*I"Organo.	*	*I"Violino Secundo.	*	*I"Violino Primo.	*I"Basso	*	*I"Tenore	*	*I"Alto	*	*I"Canto	*	*I"Corno Secondo	*I"Corno Primo	*I"Clarinetto Secundo in B.	*I"Clarinetto Primo in B
*I'org	*	*I'vl 2	*	*I'vl 1	*I'B	*	*I'T	*	*I'A	*	*I'S	*	*I'cor 2	*I'cor 1	*I'cl 2 in B	*I'cl 1 in B
*Iorgan	*	*Ivioln	*	*Ivioln	*Ibass	*	*Itenor	*	*Ialto	*	*Isoprn	*	*Icor	*Icor	*Iclars	*Iclars
*ICklav	*	*ICstr	*	*ICstr	*ICvox	*	*ICvox	*	*ICvox	*	*ICvox	*	*ICbras	*ICbras	*ICww	*ICww
*IGcont	*	*	*	*	*IGcoro	*	*IGcoro	*	*IGcoro	*	*IGcoro	*	*	*	*	*
*clefF4	*	*clefG2	*	*clefG2	*clefF4	*	*clefC4	*	*clefC3	*	*clefC1	*	*clefG2	*clefG2	*clefG2	*clefG2
*	*	*	*	*	*	*	*	*	*	*	*	*	*	*	*ITrd1c2	*ITrd1c2
*k[b-e-a-]	*	*k[e-b-a-]	*	*k[e-b-a-]	*k[b-e-a-]	*	*k[a-e-b-]	*	*k[b-e-a-]	*	*k[a-e-b-]	*	*k[b-e-a-]	*k[b-e-a-]	*k[b-e-a-]	*k[b-e-a-]
*E-:	*	*E-:	*	*E-:	*E-:	*	*E-:	*	*E-:	*	*E-:	*	*E-:	*E-:	*E-:	*E-:
*M4/4	*	*M4/4	*	*M4/4	*M4/4	*	*M4/4	*	*M4/4	*	*M4/4	*	*M4/4	*M4/4	*M4/4	*M4/4
*met(C.)	*	*met(C.)	*	*met(C.)	*met(C.)	*	*met(C.)	*	*met(C.)	*	*met(c)	*	*met(C.)	*met(C.)	*met(C.)	*met(C.)
=1	=1	=1	=1	=1	=1	=1	=1	=1	=1	=1	=1	=1	=1	=1	=1	=1
!	!	!	!	!	!LO:TX:a:t=P:problem=miejscami złe podpisanie tekstu w źródle	!	!LO:TX:a:t=P:problem=miejscami złe podpisanie tekstu w źródle	!	!LO:TX:a:t=P:problem=miejscami złe podpisanie tekstu w źródle	!	!LO:TX:a:t=P:problem=miejscami złe podpisanie tekstu w źródle	!	!	!	!	!
!LO:TX:a:t=P:problem=błędne znaki przykluczowe BB- F- E-	!	!	!	!	!	!	!	!	!	!	!LO:TX:a:t=P:problem=znaki przykluczowe przy poprzedniej części	!	!	!	!	!
!	!	!	!	!	!LO:TX:a:i:t=Adagio	!	!LO:TX:a:rj:t=Adagio	!	!LO:TX:a:rj:t=Adagio	!	!LO:TX:a:t=Adagio	!	!	!	!LO:TX:a:t=Adagio	!LO:TX:a:t=Adagio
!LO:TX:a:rj:t=Adagio	!	!LO:TX:a:rj:t=Adagio.	!LO:DY:t=p.	!LO:TX:a:t=Adagio	!LO:TX:a:t=4	!	!LO:TX:a:t=4	!	!LO:TX:a:t=4	!	!LO:TX:a:t=4	!	!	!	!LO:TX:a:t=4.	!LO:TX:a:t=4.
8E-\	.	(16g\LL	p	8ee-\	00r	.	00r	.	00r	.	00r	.	1ryy	1ryy	00r	00r
.	.	16b-\	.	.	.	.	.	.	.	.	.	.	.	.	.	.
8r	.	16g\	.	4ee-\	.	.	.	.	.	.	.	.	.	.	.	.
.	.	16b-\JJ)	.	.	.	.	.	.	.	.	.	.	.	.	.	.
8E-\	.	(16f\LL	.	.	.	.	.	.	.	.	.	.	.	.	.	.
.	.	16b-\	.	.	.	.	.	.	.	.	.	.	.	.	.	.
.	.	.	.	8qqaa-/	.	.	.	.	.	.	.	.	.	.	.	.
8r	.	16g\	.	16gg\LL	.	.	.	.	.	.	.	.	.	.	.	.
.	.	16b-\JJ)	.	32ff\L	.	.	.	.	.	.	.	.	.	.	.	.
.	.	.	.	32ee-\JJJ	.	.	.	.	.	.	.	.	.	.	.	.
*	*	*tremolo	*	*	*	*	*	*	*	*	*	*	*	*	*	*
*	*	*2\right	*	*	*	*	*	*	*	*	*	*	*	*	*	*
8F\	6_ 3_	(16a-\LL	.	16ee-\LL	.	.	.	.	.	.	.	.	.	.	.	.
.	.	16b-\	.	16dd\JJ	.	.	.	.	.	.	.	.	.	.	.	.
8r	.	16a-\	.	4dd\	.	.	.	.	.	.	.	.	.	.	.	.
.	.	16b-\	.	.	.	.	.	.	.	.	.	.	.	.	.	.
8F\	.	16a-\	.	.	.	.	.	.	.	.	.	.	.	.	.	.
.	X X	16b-\	.	.	.	.	.	.	.	.	.	.	.	.	.	.
8r	.	16a-\	.	8ee-\	.	.	.	.	.	.	.	.	.	.	.	.
.	.	16b-\)JJ	.	.	.	.	.	.	.	.	.	.	.	.	.	.
=2	=2	=2	=2	=2	=2	=2	=2	=2	=2	=2	=2	=2	=2	=2	=2	=2
8D\	6 5	(16a-\LL	.	16een\LL	.	.	.	.	.	.	.	.	1ryy	1ryy	.	.
.	.	16b-\	.	16ff\JJ	.	.	.	.	.	.	.	.	.	.	.	.
8r	.	16a-\	.	4ff\	.	.	.	.	.	.	.	.	.	.	.	.
.	.	16b-\	.	.	.	.	.	.	.	.	.	.	.	.	.	.
8D\	.	16a-\	.	.	.	.	.	.	.	.	.	.	.	.	.	.
.	.	16b-\	.	.	.	.	.	.	.	.	.	.	.	.	.	.
8r	.	16a-\	.	(32aa-\LLL	.	.	.	.	.	.	.	.	.	.	.	.
.	.	.	.	32ff\	.	.	.	.	.	.	.	.	.	.	.	.
.	.	16b-\)JJ	.	32ee-X\	.	.	.	.	.	.	.	.	.	.	.	.
.	.	.	.	32dd\JJJ)	.	.	.	.	.	.	.	.	.	.	.	.
8E-\	.	(16g\LL	.	16ff\LL	.	.	.	.	.	.	.	.	.	.	.	.
.	.	16b-\	.	16ee-\JJ	.	.	.	.	.	.	.	.	.	.	.	.
!	!	!	!	!LO:LB:g=original	!	!	!	!	!	!	!	!	!	!	!	!
8r	.	16g\	.	4ee-\	.	.	.	.	.	.	.	.	.	.	.	.
.	.	16b-\	.	.	.	.	.	.	.	.	.	.	.	.	.	.
8E-\	.	16g\	.	.	.	.	.	.	.	.	.	.	.	.	.	.
.	.	16b-\	.	.	.	.	.	.	.	.	.	.	.	.	.	.
!	!	!	!	!LO:N:vis=16	!	!	!	!	!	!	!	!	!	!	!	!
8r	.	16g\	.	32dd\LLL	.	.	.	.	.	.	.	.	.	.	.	.
!	!	!	!	!LO:N:vis=16	!	!	!	!	!	!	!	!	!	!	!	!
.	.	.	.	32ee-\	.	.	.	.	.	.	.	.	.	.	.	.
!	!	!	!	!LO:N:vis=16	!	!	!	!	!	!	!	!	!	!	!	!
.	.	16b-\)JJ	.	32een\	.	.	.	.	.	.	.	.	.	.	.	.
!	!	!	!	!LO:N:vis=16	!	!	!	!	!	!	!	!	!	!	!	!
.	.	.	.	32ff\JJJ	.	.	.	.	.	.	.	.	.	.	.	.
=3	=3	=3	=3	=3	=3	=3	=3	=3	=3	=3	=3	=3	=3	=3	=3	=3
8E-\	.	(16g\LL	.	16ff#X\LL	.	.	.	.	.	.	.	.	1ryy	1ryy	.	.
.	.	16b-\	.	16gg\J	.	.	.	.	.	.	.	.	.	.	.	.
8r	.	16g\	.	8.bb-\J	.	.	.	.	.	.	.	.	.	.	.	.
.	.	16b-\	.	.	.	.	.	.	.	.	.	.	.	.	.	.
8G\	6	16g\	.	.	.	.	.	.	.	.	.	.	.	.	.	.
!	!	!	!	!LO:N:vis=16	!	!	!	!	!	!	!	!	!	!	!	!
.	.	16b-\	.	32aa-\LLL	.	.	.	.	.	.	.	.	.	.	.	.
!	!	!	!	!LO:N:vis=16	!	!	!	!	!	!	!	!	!	!	!	!
.	.	.	.	32gg\JJJ	.	.	.	.	.	.	.	.	.	.	.	.
8r	.	16g\	.	32ff#\LLL	.	.	.	.	.	.	.	.	.	.	.	.
.	.	.	.	32ee-\	.	.	.	.	.	.	.	.	.	.	.	.
.	.	16b-\)JJ	.	32dd\	.	.	.	.	.	.	.	.	.	.	.	.
.	.	.	.	32ee-\JJJ	.	.	.	.	.	.	.	.	.	.	.	.
*	*	*Xtremolo	*	*	*	*	*	*	*	*	*	*	*	*	*	*
8A-\	6	16a-\LL	.	16gg\LL	.	.	.	.	.	.	.	.	.	.	.	.
!	!	!	!	!LO:SIC:v:s=16ffn\JJ	!	!	!	!	!	!	!	!	!	!	!	!
.	.	16cc\	.	16ff#\JJ	.	.	.	.	.	.	.	.	.	.	.	.
!	!	!	!	!LO:SIC:v:s=4ffn\	!	!	!	!	!	!	!	!	!	!	!	!
8r	.	16a-\	.	4ff#\	.	.	.	.	.	.	.	.	.	.	.	.
.	.	16cc\JJ	.	.	.	.	.	.	.	.	.	.	.	.	.	.
8B-\	6	16f/LL	.	.	.	.	.	.	.	.	.	.	.	.	.	.
.	.	16a-/	.	.	.	.	.	.	.	.	.	.	.	.	.	.
8r	.	16d/	.	16gg\LL	.	.	.	.	.	.	.	.	.	.	.	.
.	.	16f/JJ	.	16aa-\JJ	.	.	.	.	.	.	.	.	.	.	.	.
!LO:LB:g=original	!	!LO:LB:g=original	!	!	!	!	!	!	!	!	!	!	!	!	!	!
=4	=4	=4	=4	=4	=4	=4	=4	=4	=4	=4	=4	=4	=4	=4	=4	=4
*	*	*tremolo	*	*	*	*	*	*	*	*	*	*	*	*	*	*
.	.	.	.	8qqaa-/	.	.	.	.	.	.	.	.	.	.	.	.
8c\	.	16e-/LL	.	16gg\LL	.	.	.	.	.	.	.	.	1ryy	1ryy	.	.
.	.	16g/	.	32ff\L	.	.	.	.	.	.	.	.	.	.	.	.
.	.	.	.	32ee-\JJ	.	.	.	.	.	.	.	.	.	.	.	.
8r	.	16e-/	.	8.ee-\J	.	.	.	.	.	.	.	.	.	.	.	.
.	.	16g/	.	.	.	.	.	.	.	.	.	.	.	.	.	.
8G\	6	16e-/	.	.	.	.	.	.	.	.	.	.	.	.	.	.
.	.	16g/	.	32gg\LLL	.	.	.	.	.	.	.	.	.	.	.	.
.	.	.	.	32ff\	.	.	.	.	.	.	.	.	.	.	.	.
8r	.	16e-/	.	32een\	.	.	.	.	.	.	.	.	.	.	.	.
.	.	.	.	32ee-X\	.	.	.	.	.	.	.	.	.	.	.	.
.	.	16g/JJ	.	32dd\	.	.	.	.	.	.	.	.	.	.	.	.
.	.	.	.	32dd-X\JJJ	.	.	.	.	.	.	.	.	.	.	.	.
*	*	*Xtremolo	*	*	*	*	*	*	*	*	*	*	*	*	*	*
8A-\	6 5	16a-\LL	.	32cc\LLL	.	.	.	.	.	.	.	.	.	.	.	.
.	.	.	.	32ee-\	.	.	.	.	.	.	.	.	.	.	.	.
.	.	16cc\	.	32dd-\	.	.	.	.	.	.	.	.	.	.	.	.
.	.	.	.	32ff\JJJ	.	.	.	.	.	.	.	.	.	.	.	.
8r	.	16a-\	.	32aa-\LLL	.	.	.	.	.	.	.	.	.	.	.	.
.	.	.	.	32gg\	.	.	.	.	.	.	.	.	.	.	.	.
.	.	16cc\JJ	.	32ff\	.	.	.	.	.	.	.	.	.	.	.	.
.	.	.	.	32ee-X\JJJ	.	.	.	.	.	.	.	.	.	.	.	.
8B-\	3	16f\LL	.	4ddn\	.	.	.	.	.	.	.	.	.	.	.	.
.	.	16a-\	.	.	.	.	.	.	.	.	.	.	.	.	.	.
8r	.	16f\	.	.	.	.	.	.	.	.	.	.	.	.	.	.
.	.	16a-\JJ	.	.	.	.	.	.	.	.	.	.	.	.	.	.
!	!	!	!	!LO:PB:g=original	!	!	!	!	!	!	!	!	!	!	!	!
=5	=5	=5	=5	=5	=5	=5	=5	=5	=5	=5	=5	=5	=5	=5	=5	=5
*tremolo	*	*	*	*	*	*	*	*	*	*	*	*	*	*	*	*
*2\right	*	*	*	*	*	*	*	*	*	*	*	*	*	*	*	*
!LO:TX:a:t=Tutti	!	!	!	!	!	!	!	!	!LO:N:vis=4.	!	!	!	!	!	!	!LO:TX:a:t=Solo
8E-\L	.	4g/	.	8ee-\	4E-\	A-	4B-\	A-	4g\	A-	4ee-\	A-	1ryy	1ryy	(8.ee-\L	8.gg\L
8E-\	.	.	.	8r	.	.	.	.	.	.	.	.	.	.	.	.
.	.	.	.	.	.	.	.	.	.	.	.	.	.	.	16gg\Jk)	16bb-\Jk
!	!	!	!	!	!	!	!	!	!LO:N:vis=8	!	!	!	!	!	!	!
8E-\	.	4r	.	4r	8.E-\	.	8.B-\	.	8.g\	.	8.ee-\	.	.	.	(16aa-\LL	16ccc\LL
.	.	.	.	.	.	.	.	.	.	.	.	.	.	.	16gg\	16bb-\
8E-\J	.	.	.	.	.	.	.	.	.	.	.	.	.	.	16ff\	16aa-\
.	.	.	.	.	16E-\	.	16B-\	.	16g\	.	16ee-\	.	.	.	16ee-\JJ)	16gg\JJ
*Xtremolo	*	*	*	*	*	*	*	*	*	*	*	*	*	*	*	*
!LO:TX:a:t=P:problem=mixed beam	!	!	!	!	!	!	!	!	!	!	!	!	!	!	!	!
8B-\L	.	16r	.	16r	4B-\	-gnus	4B-\	-gnus	4f\	-gnus	4dd\	-gnus	.	.	4dd\	4ff\
.	.	16d/LL	.	16f'/LL	.	.	.	.	.	.	.	.	.	.	.	.
8BB-/J	.	16e-/	.	16g'/	.	.	.	.	.	.	.	.	.	.	.	.
.	.	16f/JJ	.	16a-'/JJ	.	.	.	.	.	.	.	.	.	.	.	.
4r	.	16g\LL	.	16b-'\LL	4r	.	4r	.	4r	.	4r	.	.	.	4r	4r
.	.	16a-\	.	16cc'\	.	.	.	.	.	.	.	.	.	.	.	.
.	.	16b-\	.	16dd'\	.	.	.	.	.	.	.	.	.	.	.	.
.	.	16cc\JJ	.	16ee-'\JJ	.	.	.	.	.	.	.	.	.	.	.	.
=6	=6	=6	=6	=6	=6	=6	=6	=6	=6	=6	=6	=6	=6	=6	=6	=6
8r	.	8dd\	.	4ff\	4B-\	A-	4B-\	A-	4f\	A-	4dd\	A-	1ryy	1ryy	(8.dd\L	(8.ff\L
!LO:TX:a:t=P:problem=mixed beam	!	!	!	!	!	!	!	!	!	!	!	!	!	!	!	!
8B-\L	.	8r	.	.	.	.	.	.	.	.	.	.	.	.	.	.
.	.	.	.	.	.	.	.	.	.	.	.	.	.	.	16ee-\Jk)	16gg\Jk)
!	!	!	!	!	!LO:N:vis=16.	!	!	!	!	!	!	!	!	!	!	!
8BB-/	.	4r	.	4r	8.B-\	.	8.B-\	.	8.f\	.	8.dd\	.	.	.	(16gg\LL	16bb-\LL
.	.	.	.	.	.	.	.	.	.	.	.	.	.	.	16ff\	16aa\
8B-\J	.	.	.	.	.	.	.	.	.	.	.	.	.	.	16ee-\	16bb-\
.	.	.	.	.	16B-\	.	16B-\	.	16f\	.	16dd\	.	.	.	16dd\JJ)	16aa\JJ
!LO:TX:a:t=P:problem=mixed beam	!	!	!	!	!	!	!	!	!	!	!	!	!	!	!	!
8E-\L	.	16r	.	16r	4E-\	-gnus	4B-\	-gnus	4f\	-gnus	4ee-\	-gnus	.	.	4ee-\	4gg\
.	.	16e-/LL	.	16g'\LL	.	.	.	.	.	.	.	.	.	.	.	.
8EE-/J	.	16f/	.	16a-'\	.	.	.	.	.	.	.	.	.	.	.	.
.	.	16g/JJ	.	16b-'\JJ	.	.	.	.	.	.	.	.	.	.	.	.
4r	.	16a-\LL	.	16cc'\LL	4r	.	4r	.	4r	.	4r	.	.	.	4r	4r
.	.	16b-\	.	16dd'\	.	.	.	.	.	.	.	.	.	.	.	.
.	.	16cc\	.	16ee-'\	.	.	.	.	.	.	.	.	.	.	.	.
.	.	16dd\JJ	.	16ff'\JJ	.	.	.	.	.	.	.	.	.	.	.	.
=7	=7	=7	=7	=7	=7	=7	=7	=7	=7	=7	=7	=7	=7	=7	=7	=7
*	*	*	*	*	*	*	*	*	*	*	*	*ij	*	*	*	*
!LO:TX:a:t=Solo	!	!	!	!	!	!	!LO:TX:a:t=2	!	!LO:TX:a:t=2	!	!	!	!	!	!LO:TX:a:t=1.	!LO:TX:a:t=1
8E-\	.	16ee-\LL	.	8ee-\	1r	.	0r	.	0r	.	4ee-\	A-	1ryy	1ryy	1r	1r
.	.	16b-\	.	.	.	.	.	.	.	.	.	.	.	.	.	.
8r	.	16g\	.	4ee-\	.	.	.	.	.	.	.	.	.	.	.	.
.	.	16b-\JJ	.	.	.	.	.	.	.	.	.	.	.	.	.	.
8E-\	.	16g\LL	.	.	.	.	.	.	.	.	16ee-\LL	-gnus	.	.	.	.
*	*	*	*	*	*	*	*	*	*	*	*	*Xij	*	*	*	*
.	.	16b-\	.	.	.	.	.	.	.	.	16gg\JJ	.	.	.	.	.
8r	.	16g\	.	16ee-\LL	.	.	.	.	.	.	16ff\LL	.	.	.	.	.
.	.	16b-\JJ	.	16gg\JJ	.	.	.	.	.	.	16ee-\JJ	de-	.	.	.	.
8c\	.	16g\LL	.	16gg\LL	.	.	.	.	.	.	4.ee-\	-i	.	.	.	.
.	.	16cc\	.	16ee-\JJ	.	.	.	.	.	.	.	.	.	.	.	.
8r	.	16g\	.	4ee-\	.	.	.	.	.	.	.	.	.	.	.	.
.	.	16cc\JJ	.	.	.	.	.	.	.	.	.	.	.	.	.	.
8c\	.	16g\LL	.	.	.	.	.	.	.	.	.	.	.	.	.	.
.	.	16b-\	.	.	.	.	.	.	.	.	.	.	.	.	.	.
8r	.	16g\	.	8een\	.	.	.	.	.	.	8een\	qui	.	.	.	.
.	.	16cc\JJ	.	.	.	.	.	.	.	.	.	.	.	.	.	.
!	!	!LO:LB:g=original	!	!	!	!	!	!	!	!	!	!	!	!	!	!
=8	=8	=8	=8	=8	=8	=8	=8	=8	=8	=8	=8	=8	=8	=8	=8	=8
*	*	*tremolo	*	*	*	*	*	*	*	*	*	*	*	*	*	*
!	!	!	!	!LO:N:vis=32	!	!	!	!	!	!	!	!	!	!	!LO:TX:a:t=1.	!LO:TX:a:t=1.
8A-\	6	16a-\LL	.	16ee-\LL	1r	.	.	.	.	.	4.ff\	tol-	1ryy	1ryy	1r	1r
!	!	!	!	!LO:N:vis=32	!	!	!	!	!	!	!	!	!	!	!	!
.	.	16cc\	.	16ff\J	.	.	.	.	.	.	.	.	.	.	.	.
8r	.	16a-\	.	8.ff\J	.	.	.	.	.	.	.	.	.	.	.	.
.	.	16cc\	.	.	.	.	.	.	.	.	.	.	.	.	.	.
8A-\	.	16a-\	.	.	.	.	.	.	.	.	.	.	.	.	.	.
.	.	16cc\	.	32ee-\LLL	.	.	.	.	.	.	.	.	.	.	.	.
.	.	.	.	32ff\JJJ	.	.	.	.	.	.	.	.	.	.	.	.
8r	.	16a-\	.	32aa-\LLL	.	.	.	.	.	.	32ee-\LLL	.	.	.	.	.
.	.	.	.	32gg\	.	.	.	.	.	.	32ff\JJJ	.	.	.	.	.
.	.	16cc\JJ	.	32ff\	.	.	.	.	.	.	32aa-\LLL	-lis	.	.	.	.
.	.	.	.	32ee-X\JJJ	.	.	.	.	.	.	32gg\JJJ	.	.	.	.	.
!	!	!	!	!LO:LB:g=original	!	!	!	!	!	!	!	!	!	!	!	!
8B-\	.	16f/LL	.	16ee-\LL	.	.	.	.	.	.	32ff\LLL	pe-	.	.	.	.
.	.	.	.	.	.	.	.	.	.	.	32ee-\JJJ	.	.	.	.	.
!	!	!	!	!	!	!	!	!	!	!	!LO:LB:g=original	!	!	!	!	!
.	.	16a-/	.	16dd\JJ	.	.	.	.	.	.	32ee-\LLL	-ca-	.	.	.	.
.	.	.	.	.	.	.	.	.	.	.	32dd\JJJ	.	.	.	.	.
8r	.	16f/	.	4dd\	.	.	.	.	.	.	4dd\	-ta	.	.	.	.
.	.	16a-/	.	.	.	.	.	.	.	.	.	.	.	.	.	.
8B-\	.	16f/	.	.	.	.	.	.	.	.	.	.	.	.	.	.
.	.	16a-/	.	.	.	.	.	.	.	.	.	.	.	.	.	.
8r	.	16f/	.	16ff\LL	.	.	.	.	.	.	16ff\LL	pe-	.	.	.	.
!	!	!	!	!	!	!	!	!	!	!	!LO:SIC:v:l:s=pec	!	!	!	!	!
.	.	16a-/JJ	.	16dd\JJ	.	.	.	.	.	.	16dd\JJ	.	.	.	.	.
*	*	*Xtremolo	*	*	*	*	*	*	*	*	*	*	*	*	*	*
!	!	!	!	!	!	!	!	!	!	!	!	!	!	!	!LO:LB:g=original	!
=9	=9	=9	=9	=9	=9	=9	=9	=9	=9	=9	=9	=9	=9	=9	=9	=9
*	*	*^	*	*	*	*	*	*	*	*	*	*	*	*	*	*
*tremolo	*	*	*	*	*	*	*	*	*	*	*	*	*	*	*	*2\right	*2\right
!LO:TX:a:t=T.	!	!	!	!LO:DY:b:rj:t=for	!	!	!	!	!	!LO:SIC:v:l:s=pec	!	!	!	!	!	!	!
8E-\L	.	8g/L	8ryy	f	(16ee-\LL	4E-\	de-	4e-\	pec-	4b-\	pe-	8ee-\L	-ca-	1ryy	1ryy	2b-\	2gg\
.	.	.	.	.	16bb-\)	.	.	.	.	.	.	.	.	.	.	.	.
8E-\	.	8b-/	8f\L	.	(16bb-\	.	.	.	.	.	.	8gg\	.	.	.	.	.
.	.	.	.	.	16gg\JJ)	.	.	.	.	.	.	.	.	.	.	.	.
8E-\	.	8b-/	8g\	.	(16gg\LL	8E-\L	-i	8e-\L	-ca-	8b-\L	-ca-	8gg\	.	.	.	.	.
.	.	.	.	.	16ee-\)	.	.	.	.	.	.	.	.	.	.	.	.
8E-\J	.	8b-/J	8g\J	.	(16bb-\	8E-\J	qui	8e-\J	.	8b-\J	-ta	8gg\J	.	.	.	.	.
.	.	.	.	.	16ff\JJ)	.	.	.	.	.	.	.	.	.	.	.	.
!	!	!	!	!	!	!	!	!	!	!	!	!	!	!	!	!LO:N:vis=2.	!
8D\L	6 5	8b-/L	2ryy	.	16r	4D\	tol-	4f\	.	4b-\	mun-	4ff\	-ta	.	.	2b-\	2ff\
.	.	.	.	.	16bb-\LL	.	.	.	.	.	.	.	.	.	.	.	.
8D\	.	8a-/	.	.	16bb-\	.	.	.	.	.	.	.	.	.	.	.	.
.	.	.	.	.	16gg\JJ	.	.	.	.	.	.	.	.	.	.	.	.
*	*	*	*	*	*	*	*	*	*	*	*	*	*ij	*	*	*	*
!	!	!	!	!	!	!	!	!	!	!	!	!LO:SIC:v:l:s=pec	!	!	!	!	!
8D\	.	8an/	.	.	16ff\LL	4D\	.	4f\	.	4b-\	-di	4ff\	pe-	.	.	.	.
.	.	.	.	.	16dd\	.	.	.	.	.	.	.	.	.	.	.	.
8D\J	.	8a/J	.	.	16bb-\	.	.	.	.	.	.	.	.	.	.	.	.
!	!	!LO:TX:a:t=vi	!	!	!	!	!	!	!	!	!	!	!	!	!	!	!
.	.	.	.	.	16ff\JJ	.	.	.	.	.	.	.	.	.	.	.	.
*Xtremolo	*	*	*	*	*	*	*	*	*	*	*	*	*	*	*	*	*
*	*	*v	*v	*	*	*	*	*	*	*	*	*	*	*	*	*	*
!	!	!	!	!	!LO:LB:g=original	!	!LO:LB:g=original	!	!LO:LB:g=original	!	!	!	!	!	!	!LO:LB:g=original
=10	=10	=10	=10	=10	=10	=10	=10	=10	=10	=10	=10	=10	=10	=10	=10	=10
*	*	*	*	*	*	*	*	*	*	*ij	*	*	*	*	*	*
!	!	!LO:TX:a:t=de	!	!	!	!	!	!	!LO:SIC:v:l:s=pec	!	!	!	!	!	!	!
8E-\L	.	2r	.	16r	4E-\	-lis	4e-\	-ta	4b-\	pe-	4gg\	-ca-	1ryy	1ryy	2b-\	4gg\
.	.	.	.	16ff\LL	.	.	.	.	.	.	.	.	.	.	.	.
8E-\	.	.	.	16aan\	.	.	.	.	.	.	.	.	.	.	.	.
.	.	.	.	16bb-\JJ	.	.	.	.	.	.	.	.	.	.	.	.
!	!	!	!	!	!LO:SIC:v:l:s=pec-	!	!	!	!	!	!	!	!	!	!	!
8D\	6	.	.	16r	4D\	pe-	4f\	.	4b-\	-ca-	4ff\	.	.	.	.	4ff\
.	.	.	.	16ff\LL	.	.	.	.	.	.	.	.	.	.	.	.
8D\J	.	.	.	16aa\	.	.	.	.	.	.	.	.	.	.	.	.
.	.	.	.	16bb-\JJ	.	.	.	.	.	.	.	.	.	.	.	.
!LO:LB:g=original	!	!	!	!	!	!	!	!	!	!	!	!	!	!	!	!
*tremolo	*	*	*	*	*	*	*	*	*	*	*	*	*	*	*	*
8C/L	7	16r	.	16r	4C/	-ca-	4g\	mun-	4b-\	-ta	4ee-\	-ta	.	.	4b-\	2ee-\
*	*	*	*	*	*	*	*	*	*	*	*	*Xij	*	*	*	*
.	.	16cc\LL	.	16ee-\LL	.	.	.	.	.	.	.	.	.	.	.	.
8C/	.	16cc\	.	16ee-\	.	.	.	.	.	.	.	.	.	.	.	.
.	.	16cc\JJ	.	16ee-\JJ	.	.	.	.	.	.	.	.	.	.	.	.
!	!	!LO:N:vis=8	!	!	!	!	!	!	!	!	!	!	!	!	!	!
8C/	6	16cc\LL	.	16ee-\LL	4C/	-ta	4f\	.	4an\	mun-	4ee-\	mun-	.	.	4a\	.
.	.	32dd\L	.	32ff\L	.	.	.	.	.	.	.	.	.	.	.	.
.	.	32ee-\JJJ	.	32gg\JJJ	.	.	.	.	.	.	.	.	.	.	.	.
!	!	!LO:N:vis=8	!	!	!	!	!	!	!	!	!	!	!	!	!	!
8C/J	.	16dd\LL	.	16ff\LL	.	.	.	.	.	.	.	.	.	.	.	.
!	!	!LO:N:vis=8	!	!	!	!	!	!	!	!	!	!	!	!	!	!
.	.	16cc\JJ	.	16ee-\JJ	.	.	.	.	.	.	.	.	.	.	.	.
*Xtremolo	*	*	*	*	*	*	*	*	*	*	*	*	*	*	*	*
=11	=11	=11	=11	=11	=11	=11	=11	=11	=11	=11	=11	=11	=11	=11	=11	=11
*	*	*tremolo	*	*	*	*	*	*	*	*	*	*	*	*	*	*
!	!	!	!	!	!	!	!	!	!	!	!LO:TX:a:t=P:problem=zamazana nuta	!	!	!	!	!
8BB-/	.	16B-/LL	.	16dd/LL	4BB-/	mundi	4f\	-di	4b-\	-di	4dd\	-di	1ryy	1ryy	8b-\	8dd\
*	*	*	*	*	*	*	*	*	*	*Xij	*	*	*	*	*	*
.	.	16d/	.	16f/	.	.	.	.	.	.	.	.	.	.	.	.
8r	.	16B-/	.	16d/	.	.	.	.	.	.	.	.	.	.	4b-\	4dd\
.	.	16d/	.	16f/JJ	.	.	.	.	.	.	.	.	.	.	.	.
8BB-/	.	16B-/	.	16d/LL	4r	.	4r	.	4r	.	4r	.	.	.	.	.
.	.	16d/	.	16f/	.	.	.	.	.	.	.	.	.	.	.	.
8r	.	16B-/	.	16d/	.	.	.	.	.	.	.	.	.	.	16cc\LL	(16ee-\LL
.	.	16d/JJ	.	16f/JJ	.	.	.	.	.	.	.	.	.	.	16dd\JJ	16ff\JJ)
!	!	!	!	!LO:LB:g=original	!	!	!	!	!	!	!	!	!	!	!	!
*	*	*	*	*tremolo	*	*	*	*	*	*	*	*	*	*	*	*
8E-\	6	16c/LL	.	16e-/LL	2r	.	2r	.	2r	.	2r	.	.	.	(8ee-\L	(16gg\LL
.	.	16e-/	.	16g/	.	.	.	.	.	.	.	.	.	.	.	16ee-\J)
8r	.	16c/	.	16e-/	.	.	.	.	.	.	.	.	.	.	16cc\L)	8ee-\J|
.	.	16e-/	.	16g/	.	.	.	.	.	.	.	.	.	.	16cc\JJ|	.
8E-\	.	16c/	.	16e-/	.	.	.	.	.	.	.	.	.	.	16r	16r
.	.	16e-/	.	16g/	.	.	.	.	.	.	.	.	.	.	(32cc\LLL	32ee-\LLL
.	.	.	.	.	.	.	.	.	.	.	.	.	.	.	32dd\J)	32ff\J
8r	.	16c/	.	16e-/	.	.	.	.	.	.	.	.	.	.	16cc\|	16ee-\
.	.	16e-/JJ	.	16g/JJ	.	.	.	.	.	.	.	.	.	.	16b-\JJ|	16dd\JJ
=12	=12	=12	=12	=12	=12	=12	=12	=12	=12	=12	=12	=12	=12	=12	=12	=12
!	!	!	!	!	!LO:TX:a:t=1.	!	!	!	!LO:TX:a:t=1.	!	!LO:TX:a:t=1.	!	!	!	!	!
8F\	n	16An/LL	.	16c/LL	1r	.	1r	.	1r	.	1r	.	1ryy	1ryy	16b-\LL	16dd\LL
.	.	16c/	.	16e-/	.	.	.	.	.	.	.	.	.	.	16a\J	16cc\J
8r	.	16An/	.	16c/	.	.	.	.	.	.	.	.	.	.	8.a\J	8.cc\J
.	.	16c/	.	16e-/	.	.	.	.	.	.	.	.	.	.	.	.
8F\	.	16An/	.	16c/	.	.	.	.	.	.	.	.	.	.	.	.
*	*	*	*	*	*	*	*	*	*	*	*	*	*	*	*Xbrackettup	*Xtuplet
!	!	!	!	!	!	!	!	!	!	!	!	!	!	!	!LO:TUP:a:problem=klamra łukowa	!
!	!	!	!	!	!	!	!	!	!	!	!	!	!	!	!LO:N:vis=48	!LO:N:vis=48
.	.	16c/	.	16e-/	.	.	.	.	.	.	.	.	.	.	24b-\LLL	24dd\LLL
!	!	!	!	!	!	!	!	!	!	!	!	!	!	!	!LO:N:vis=48	!LO:N:vis=48
.	.	.	.	.	.	.	.	.	.	.	.	.	.	.	24cc\J	24ee-\J
8r	.	16An/	.	16c/	.	.	.	.	.	.	.	.	.	.	.	.
!	!	!	!	!	!	!	!	!	!	!	!	!	!	!	!LO:N:vis=48	!
.	.	.	.	.	.	.	.	.	.	.	.	.	.	.	24dd\	24ff\
.	.	16c/JJ	.	16e-/JJ	.	.	.	.	.	.	.	.	.	.	16cc\JJ	16ee-\JJ)
*	*	*Xtremolo	*	*Xtremolo	*	*	*	*	*	*	*	*	*	*	*	*
!LO:TX:a:t=P:problem=mixed beam	!	!	!	!	!	!	!	!	!	!	!	!	!	!	!	!
8BB-/L	4	8.c/L	.	8.e-/L	.	.	.	.	.	.	.	.	.	.	4cc\	4ee-\
8B-\	.	.	.	.	.	.	.	.	.	.	.	.	.	.	.	.
.	.	32d/LL	.	32f/LL	.	.	.	.	.	.	.	.	.	.	.	.
.	.	32c/JJJ	.	32e-/JJJ	.	.	.	.	.	.	.	.	.	.	.	.
8BB-/J	3	4B-/	.	8d/	.	.	.	.	.	.	.	.	.	.	8b-\	8dd\
!	!	!LO:TX:b:t=Finſ&colon;	!	!LO:TX:b:t=Finſ	!	!	!	!	!	!	!	!	!	!	!LO:TX:b:t=Finſ.	!LO:TX:b:t=Finis.
8r	.	.	.	8r	.	.	.	.	.	.	.	.	.	.	8r	8r
!LO:TX:b:t=Dona nobis ut Kyrie Allegro	!	!LO:TX:b:t=Dona nobis ut Kyrie Allegro.	!	!LO:TX:b:t=Donanobis ut Kyrie Allegro.	!LO:TX:b:t=Dona nobis ut Kyrie Allegro.	!	!LO:TX:b:t=Dona nobis ut Kyrie Allegro	!	!LO:TX:b:t=Dona nobis ut Kyrie Allegro	!	!LO:TX:b:t=Dona nobis ut Kyrie Allegro.	!	!	!	!LO:TX:b:t=Dona nobis ut Kyrie Allegro.	!LO:TX:b:t=Dona nob is ut Kyrie Allegro
==	==	==	==	==	==	==	==	==	==	==	==	==	==	==	==	==
*-	*-	*-	*-	*-	*-	*-	*-	*-	*-	*-	*-	*-	*-	*-	*-	*-
!!!system-decoration: [(g1)][(g2)][(g3)][(g4)]s11
!!!RDF**kern: | = vertical stroke
!!!ENC: Anastazja Marusiak
!!!END: 2020-07-17
!!!ENC: Marta Lawrence
!!!END: 2021-01-14
!!!YEC: Copyright 2022 Narodowy Instytut Fryderyka Chopina (https://polishscores.org)
!!!YEM: License CC-BY-4.0 (https://creativecommons.org/licenses/by/4.0)
